X:1
T:Regnant, 77.77.77
T:Arr. from Handel by A. J. Foxwell ca. 1902
T:Regnant, 77.77.77
T:Public Domain
C:Arr. from Handel by A. J. Foxwell ca. 1902
Z:Public Domain
%%score ( 1 2 ) ( 3 4 )
L:1/8
M:3/4
K:Eb
V:1 treble 
V:2 treble 
V:3 bass 
V:4 bass 
V:1
 [EG]4 F2 | [EA]4 [DG]2 | ([CF]2 ED) (EF) | [B,D]6 | (B,2 D2) [EB]2 | [Ec]4 [Ac]2 | (de B2) [FA]2 | %7
 [EG]6 | [EB]4 [EB]2 | [Ge]4 B2 | ([=Af]2 ed) (ef) | [Fd]6 | ([Ee]2 [Fd]2) [Gc]2 | [Ff]4 [Ge]2 | %14
 (de z) E2 c x | [DB]6 | [EG]4 F2 | [EA]4 [DG]2 | ([CF]2 ED) (EF) | [B,D]6 | (B,2 D2) [Ee]2 | %21
 (F2 D2) [Ee]2 | (AG F2) [DF]2 | E6 |] %24
V:2
 x4 F2 | x6 | x2 B,2 =A,2 | x6 | B4 x2 | x6 | F4 x2 | x6 | x6 | x4 B2 | x2 B2 [Fc]2 | x6 | x6 | %13
 x6 | F4 c3 | x6 | x4 F2 | x6 | x2 B,2 =A,2 | x6 | B4 x2 | B4 x2 | E4 x2 | E6 |] %24
V:3
 [E,B,]4 [D,B,]2 | C2 A,2 [B,,B,]2 | (A,,2 B,,2) [C,F,]2 | [B,,F,]6 | (G,2 [F,A,]2) [E,G,]2 | %5
 ([A,C]2 [G,B,]2) [F,A,]2 | (B,2 D,2) [D,B,]2 | [E,B,]6 | [E,G,]2 [G,B,]2 [E,G,]2 | %9
 E,2 C2 [G,B,]2 | (C2 B,2) [F,=A,]2 | B,6 | (G,2 F,2) (G,=A,) | [D,B,]4 [C,B,]2 | %14
 [F,B,]4 [F,=A,]2 x | [B,,B,]6 | [E,B,]4 [D,B,]2 | C2 A,2 [B,,B,]2 | (A,,2 B,,2) [C,F,]2 | %19
 [B,,F,]6 | (G,2 [F,A,]2) [E,G,]2 | [D,F,]2 [B,,A,]2 [C,G,]2 | [A,,C]4 (B,A,) | [E,G,]6 |] %24
V:4
 x6 | C,4 x2 | F,4 x2 | x6 | G,2 x4 | x6 | B,4 x2 | x6 | x6 | C,4 x2 | F,4 x2 | B,6 | B,4 E,2 | %13
 x6 | x7 | x6 | x6 | C,4 x2 | F,4 x2 | x6 | G,2 x4 | x6 | x4 B,,2 | x6 |] %24

